X:1
T:Cantiga 10: Rosa das rosas
T:Cantigas de Santa Maria
L:1/8
M:4/4
K:C
V:1 treble nm="Voice"
V:1
 D3 C D2 E/F/G- | GF/E/ D2 D3 C | D2 F6 | F3 G A2 AG- | GF/E/ D2 C3 D | E2 D6 | c3 c d2 cB- | %7
 BAGA F3 G | AB A6 | c3 c d2 cB- | BAGA F3 G | AB A6 | F3 E F2 G2 | z G A2 FEDD | E2 C6 | %15
 F3 G A2 AG- | GF/E/ D2 C3 !wedge!D | E2 D2- D2- !wedge!D z |] %18

